X: 4722
T: Boys Of Ballinlough, The
R: hornpipe
M: 4/4
K: Eminor
GF|:"Em"EF GA BA GF|EF GA B2 "D"FE|DE FG AB AG|"D"F2 D2 D2 "Em"GF|
"Em"EF GA BA GF|EF GA "G"B2 GA|B2 GB "D"(3ABA FA|1 G2 E2 E2 GF:|2 G2 E2 E2 Bd||
|:"Em"ef ed Be dB|"D"AB AG FG Ac|"Em"BE ED EF G2|"D"FG FE D2 Bd|ef ed Be dB|
"D"AB AG FG Ac|"G"BA GB "D"AG FA|1 G2 (3EGE E2 Bd:|2 G2 (3EGE E2||

